packages/blockchain-info-components/src/Images/img/banks/bank-logo-usaa.svg

<svg fill="none" height="32" viewBox="0 0 32 32" width="32" xmlns="http://www.w3.org/2000/svg"><g fill="#003a63"><path d="m1.08856 23.358v5.2341c0 2.9248 1.78504 3.4079 3.279 3.4079 2.2085 0 3.23165-1.4606 3.23165-3.4377v-5.2043h-1.4624v5.3814c0 .6795-.22181 1.949-1.76925 1.9244-1.40804-.0245-1.66843-1.3221-1.66843-2.1541v-5.1517z"/><path d="m13.7048 23.7017s-.9328-.4656-1.9928-.4656c-1.3204 0-2.98091.6813-2.98091 2.5329 0 1.2862.94512 1.8964 1.59131 2.2094.341.1675.7583.3542 1.1003.5375.1771.0955.8776.3322.8776 1.095 0 .8119-.8899 1.0907-1.2897 1.0907-1.4247 0-2.39524-.6497-2.39524-.6497l.14904 1.6325s.58215.2963 2.326.2972c1.6632-.0044 2.8617-1.0723 2.8617-2.5452 0-1.1327-.7725-1.8052-1.4318-2.1252-.5199-.2569-.8215-.3928-1.273-.6067-.4515-.2122-.917-.5804-.917-1.1511 0-.6102.5576-1.0486 1.3808-1.0486 1.2099 0 1.6974.5471 1.9928.7207v-1.5238z"/><path d="m23.7101 29.1865 1.1626-3.3158 1.0398 3.3158zm-7.0077 0 1.1652-3.3158 1.038 3.3158zm8.8962-5.8417h-1.7543l.2796.7085-2.724 7.276-2.8082-7.9845h-1.7543l.2797.7085-2.9038 7.7573h1.5852l.5076-1.4764h3.0019l.5042 1.4764h2.994l.5076-1.4764h3.0011l.5059 1.4764h1.7561z"/><path d="m1 13.8375.07365 2.6443s.64878-.4796 1.37384-.4796c.72769 0 1.54656.5225 1.54656.5225l6.49925 3.8042.5497-2.3909-7.04895-4.1241s-.81624-.52-1.54656-.52c-.72944 0-1.44749.5436-1.44749.5436z"/><path d="m1 10.3788.07365 2.6451s.64878-.4795 1.37384-.4795c.72769 0 1.54656.5225 1.54656.5225l7.20065 4.2127.5488-2.39-7.74857-4.5336s-.81624-.52076-1.54656-.52076-1.44837.54356-1.44837.54356z"/><path d="m1 6.92096.07365 2.64512s.64878-.4787 1.37384-.4787c.72769 0 1.54656.52078 1.54656.52078l7.90295 4.62654.5479-2.3917-8.44997-4.94658s-.81624-.51815-1.54656-.51815-1.44837.54269-1.44837.54269z"/><path d="m14.5456 2.71087.7242 3.12206 9.8974 5.78907s.7795.5199 1.5422.5199c.7654 0 1.4501-.5436 1.4501-.5436l-.0736-2.64507s-.6216.48045-1.3765.48045c-.754 0-1.5422-.52165-1.5422-.52165l-7.6574-4.481-.5286-2.00773c0-.08417.0754-.1245.1034-.13151l1.2967-.40593c.1745 0 .2753.14992.2753.27793l.0684.1429c.0464.02455.242-.07101.2569-.0789v-.79257c.0043-.524291-.4147-.989838-.9864-.989838h-1.2949s-.1894-.445382-.74-.445382h-2.4601c-.6497 0-.8066.612839-.8066.612839l-1.7079 6.920081-6.99107-4.09261s-.7575-.52078-1.54744-.52078c-.78731 0-1.44749.5427-1.44749.5427l.07365 2.64424s.5839-.47782 1.37384-.47782c.79082 0 1.54744.52253 1.54744.52253l8.60077 5.03162z"/><path d="m15.4644 6.68948.7224 3.13521 8.9813 5.25431s.804.5225 1.5422.5225 1.4501-.5453 1.4501-.5453l-.0745-2.6443s-.5751.4787-1.3756.4787c-.8022 0-1.5422-.5199-1.5422-.5199z"/><path d="m16.3841 10.6857.7233 3.1361 8.0598 4.7142s.8058.5216 1.5431.5216c.7382 0 1.4492-.5444 1.4492-.5444l-.0736-2.6451s-.576.4778-1.3765.4778c-.8022 0-1.543-.5199-1.543-.5199z"/><path d="m17.3064 14.6853.7233 3.1317 7.1375 4.1777s.8066.5234 1.5439.5234c.7383 0 1.4493-.548 1.4493-.548l-.0737-2.6433s-.576.4804-1.3764.4804c-.8022 0-1.544-.5234-1.544-.5234z"/><path d="m30.2015 22.8653c.9644 0 1.7306.7829 1.7306 1.7614 0 .9933-.7671 1.7692-1.7385 1.7692-.9627 0-1.7447-.775-1.7447-1.7692 0-.9785.782-1.7614 1.7447-1.7614zm-.0071.2744c-.7741 0-1.4089.6655-1.4089 1.487 0 .8364.6348 1.4948 1.416 1.4948.7838.007 1.4097-.6584 1.4097-1.4878s-.6259-1.494-1.4097-1.494zm-.3287 2.5119h-.3139v-1.9648c.1648-.0237.3218-.0473.5567-.0473.2964 0 .4927.0622.6102.149.1175.0859.1806.2183.1806.4059 0 .2595-.1718.4165-.3831.4779v.0149c.1727.0315.2884.1885.3288.4778.0473.306.0938.4226.1253.4857h-.3287c-.0474-.0623-.0947-.242-.1342-.4998-.0473-.2507-.1718-.3454-.4234-.3454h-.2183zm0-1.0881h.2262c.2595 0 .4778-.0938.4778-.3358 0-.1727-.1254-.3436-.4778-.3436-.1017 0-.171.007-.2262.0149z"/></g></svg>

<svg width="32" height="32" viewBox="0 0 32 32" fill="none" xmlns="http://www.w3.org/2000/svg">
<path d="M1.08856 23.358V28.5921C1.08856 31.5169 2.8736 32 4.36756 32C6.57606 32 7.59921 30.5394 7.59921 28.5623V23.358H6.13681V28.7394C6.13681 29.4189 5.915 30.6884 4.36756 30.6638C2.95952 30.6393 2.69913 29.3417 2.69913 28.5097V23.358H1.08856Z" fill="#003A63"/>
<path d="M13.7048 23.7017C13.7048 23.7017 12.772 23.2361 11.712 23.2361C10.3916 23.2361 8.73109 23.9174 8.73109 25.769C8.73109 27.0552 9.67621 27.6654 10.3224 27.9784C10.6634 28.1459 11.0807 28.3326 11.4227 28.5159C11.5998 28.6114 12.3003 28.8481 12.3003 29.6109C12.3003 30.4228 11.4104 30.7016 11.0106 30.7016C9.5859 30.7016 8.61536 30.0519 8.61536 30.0519L8.7644 31.6844C8.7644 31.6844 9.34655 31.9807 11.0904 31.9816C12.7536 31.9772 13.9521 30.9093 13.9521 29.4364C13.9521 28.3037 13.1796 27.6312 12.5203 27.3112C12.0004 27.0543 11.6988 26.9184 11.2473 26.7045C10.7958 26.4923 10.3303 26.1241 10.3303 25.5534C10.3303 24.9432 10.8879 24.5048 11.7111 24.5048C12.921 24.5048 13.4085 25.0519 13.7039 25.2255V23.7017H13.7048Z" fill="#003A63"/>
<path d="M23.7101 29.1865L24.8727 25.8707L25.9125 29.1865H23.7101ZM16.7024 29.1865L17.8676 25.8707L18.9056 29.1865H16.7024ZM25.5986 23.3448H23.8443L24.1239 24.0533L21.3999 31.3293L18.5917 23.3448H16.8374L17.1171 24.0533L14.2133 31.8106H15.7985L16.3061 30.3342H19.308L19.8122 31.8106H22.8062L23.3138 30.3342H26.3149L26.8208 31.8106H28.5769L25.5986 23.3448Z" fill="#003A63"/>
<path d="M1 13.8375L1.07365 16.4818C1.07365 16.4818 1.72243 16.0022 2.44749 16.0022C3.17518 16.0022 3.99405 16.5247 3.99405 16.5247L10.4933 20.3289L11.043 17.938L3.99405 13.8139C3.99405 13.8139 3.17781 13.2939 2.44749 13.2939C1.71805 13.2939 1 13.8375 1 13.8375Z" fill="#003A63"/>
<path d="M1 10.3788L1.07365 13.0239C1.07365 13.0239 1.72243 12.5444 2.44749 12.5444C3.17518 12.5444 3.99405 13.0669 3.99405 13.0669L11.1947 17.2796L11.7435 14.8896L3.99493 10.356C3.99493 10.356 3.17869 9.83524 2.44837 9.83524C1.71805 9.83524 1 10.3788 1 10.3788Z" fill="#003A63"/>
<path d="M1 6.92096L1.07365 9.56608C1.07365 9.56608 1.72243 9.08738 2.44749 9.08738C3.17518 9.08738 3.99405 9.60816 3.99405 9.60816L11.897 14.2347L12.4449 11.843L3.99493 6.89642C3.99493 6.89642 3.17869 6.37827 2.44837 6.37827C1.71805 6.37827 1 6.92096 1 6.92096Z" fill="#003A63"/>
<path d="M14.5456 2.71087L15.2698 5.83293L25.1672 11.622C25.1672 11.622 25.9467 12.1419 26.7094 12.1419C27.4748 12.1419 28.1595 11.5983 28.1595 11.5983L28.0859 8.95323C28.0859 8.95323 27.4643 9.43368 26.7094 9.43368C25.9554 9.43368 25.1672 8.91203 25.1672 8.91203L17.5098 4.43103L16.9812 2.4233C16.9812 2.33913 17.0566 2.2988 17.0846 2.29179L18.3813 1.88586C18.5558 1.88586 18.6566 2.03578 18.6566 2.16379L18.725 2.30669C18.7714 2.33124 18.967 2.23568 18.9819 2.22779V1.43522C18.9862 0.910929 18.5672 0.445382 17.9955 0.445382H16.7006C16.7006 0.445382 16.5112 0 15.9606 0H13.5005C12.8508 0 12.6939 0.612839 12.6939 0.612839L10.986 7.53292L3.99493 3.44031C3.99493 3.44031 3.23743 2.91953 2.44749 2.91953C1.66018 2.91953 1 3.46223 1 3.46223L1.07365 6.10647C1.07365 6.10647 1.65755 5.62865 2.44749 5.62865C3.23831 5.62865 3.99493 6.15118 3.99493 6.15118L12.5957 11.1828L14.5456 2.71087Z" fill="#003A63"/>
<path d="M15.4644 6.68948L16.1868 9.82469L25.1681 15.079C25.1681 15.079 25.9721 15.6015 26.7103 15.6015C27.4485 15.6015 28.1604 15.0562 28.1604 15.0562L28.0859 12.4119C28.0859 12.4119 27.5108 12.8906 26.7103 12.8906C25.9081 12.8906 25.1681 12.3707 25.1681 12.3707L15.4644 6.68948Z" fill="#003A63"/>
<path d="M16.3841 10.6857L17.1074 13.8218L25.1672 18.536C25.1672 18.536 25.973 19.0576 26.7103 19.0576C27.4485 19.0576 28.1595 18.5132 28.1595 18.5132L28.0859 15.8681C28.0859 15.8681 27.5099 16.3459 26.7094 16.3459C25.9072 16.3459 25.1664 15.826 25.1664 15.826L16.3841 10.6857Z" fill="#003A63"/>
<path d="M17.3064 14.6853L18.0297 17.817L25.1672 21.9947C25.1672 21.9947 25.9738 22.5181 26.7111 22.5181C27.4494 22.5181 28.1604 21.9701 28.1604 21.9701L28.0867 19.3268C28.0867 19.3268 27.5107 19.8072 26.7103 19.8072C25.9081 19.8072 25.1663 19.2838 25.1663 19.2838L17.3064 14.6853Z" fill="#003A63"/>
<path d="M30.2015 22.8653C31.1659 22.8653 31.9321 23.6482 31.9321 24.6267C31.9321 25.62 31.165 26.3959 30.1936 26.3959C29.2309 26.3959 28.4489 25.6209 28.4489 24.6267C28.4489 23.6482 29.2309 22.8653 30.1936 22.8653H30.2015ZM30.1944 23.1397C29.4203 23.1397 28.7855 23.8052 28.7855 24.6267C28.7855 25.4631 29.4203 26.1215 30.2015 26.1215C30.9853 26.1285 31.6112 25.4631 31.6112 24.6337C31.6112 23.8043 30.9853 23.1397 30.2015 23.1397H30.1944ZM29.8657 25.6516H29.5518V23.6868C29.7166 23.6631 29.8736 23.6395 30.1085 23.6395C30.4049 23.6395 30.6012 23.7017 30.7187 23.7885C30.8362 23.8744 30.8993 24.0068 30.8993 24.1944C30.8993 24.4539 30.7275 24.6109 30.5162 24.6723V24.6872C30.6889 24.7187 30.8046 24.8757 30.845 25.165C30.8923 25.471 30.9388 25.5876 30.9703 25.6507H30.6416C30.5942 25.5884 30.5469 25.4087 30.5074 25.1509C30.4601 24.9002 30.3356 24.8055 30.084 24.8055H29.8657V25.6516V25.6516ZM29.8657 24.5635H30.0919C30.3514 24.5635 30.5697 24.4697 30.5697 24.2277C30.5697 24.055 30.4443 23.8841 30.0919 23.8841C29.9902 23.8841 29.9209 23.8911 29.8657 23.899V24.5635Z" fill="#003A63"/>
</svg>
